packages/vibrant-icons/assets/icons/TextH2/Fill.svg

<svg width="24" height="24" viewBox="0 0 24 24" fill="none" xmlns="http://www.w3.org/2000/svg">
<path d="M17.413 21.4529V22.75H23.3762V21.1497L20.367 21.218C20.367 21.218 21.4665 20.1811 21.7363 19.907C21.9554 19.6844 22.5309 19.0311 22.7895 18.6736C23.0852 18.2649 23.226 17.6789 23.226 17.1094C23.226 16.6939 23.1036 16.2503 22.9102 15.9296C22.6984 15.5783 22.3087 15.2496 21.86 15.0497C21.4043 14.8517 20.8591 14.75 20.2351 14.75C19.6987 14.75 19.236 14.8271 18.8609 14.9796C18.5327 15.1001 18.2341 15.2894 17.9853 15.5349C17.7365 15.7804 17.5431 16.0764 17.4183 16.4029C17.3096 16.6922 17.2535 16.9831 17.25 17.2706H19.2482C19.2401 17.0205 19.3378 16.771 19.5136 16.5929C19.6894 16.4148 20.0171 16.3188 20.2821 16.3188C20.5471 16.3188 20.7377 16.3744 20.8779 16.4795C21.1688 16.6977 21.2641 16.9529 21.2651 17.2706C21.2661 17.6952 20.9682 18.159 20.6856 18.4596C19.6691 19.5533 17.413 21.4529 17.413 21.4529Z" fill="#0C0C0C"/>
<path d="M13.3005 21V13.1754H4.15V21H1.75V3H4.15V10.7754H13.3V3H15.7V21H13.3005Z" fill="#0C0C0C"/>
</svg>

<svg xmlns="http://www.w3.org/2000/svg" width="24" height="24" fill="none"><path fill="#0C0C0C" d="M17.413 21.453v1.297h5.963v-1.6l-3.009.068s1.1-1.037 1.37-1.311c.218-.223.794-.876 1.053-1.233.295-.41.436-.995.436-1.565 0-.415-.122-.859-.316-1.18-.212-.35-.601-.68-1.05-.88q-.686-.297-1.625-.299c-.536 0-.999.077-1.374.23a2.45 2.45 0 0 0-1.443 1.423q-.163.435-.168.868h1.998c-.008-.25.09-.5.266-.678.175-.178.503-.274.768-.274s.456.055.596.16c.29.219.386.474.387.792.001.424-.297.888-.58 1.189-1.016 1.093-3.272 2.993-3.272 2.993M13.3 21v-7.825H4.15V21h-2.4V3h2.4v7.775h9.15V3h2.4v18z"/></svg>
